X: 074
M: C
L: 1/8
K: G
c | BGdG eGdG | BGdB cA-Ac | BGdG ecAF | GDEC B,G,-G, ||
c | BGdG eGdG | BGdB cA-Ac | Bdec dgfa | gdec BG-G |]


